X: 1628
T: Anne Marie
R: reel
M: 4/4
K: Amajor
A2|:A,>CE>A c>BA>c|e>ag>a f>ae>c|d>Bg>f e>dc>B|A>e^d>f e2e2|
A,>CE>A c>BA>c|e>ag>a f>ae>c|d>Bg>f e>dc>B|A>c(3BcB A2:|
K:E
|:(B>A)|GBeB ceBe|gebe gbeg|(3fgfdf afdf|egfe dcBA|GBeB ceBe|
gebe gbeg|(3fgfdf afdf|1 {g/}fe e2 e2:|2 {g/}fe e2 A,2||

